app/summarize/icons/favregular.svg

<?xml version="1.0" encoding="UTF-8" standalone="no"?>
<svg
   xmlns:dc="http://purl.org/dc/elements/1.1/"
   xmlns:cc="http://creativecommons.org/ns#"
   xmlns:rdf="http://www.w3.org/1999/02/22-rdf-syntax-ns#"
   xmlns:svg="http://www.w3.org/2000/svg"
   xmlns="http://www.w3.org/2000/svg"
   viewBox="0 0 31.668945 32"
   height="32"
   width="31.668945"
   xml:space="preserve"
   id="svg2"
   version="1.1"><metadata
     id="metadata8"><rdf:RDF><cc:Work
         rdf:about=""><dc:format>image/svg+xml</dc:format><dc:type
           rdf:resource="http://purl.org/dc/dcmitype/StillImage" /></cc:Work></rdf:RDF></metadata><defs
     id="defs6" /><g
     transform="matrix(1.3333333,0,0,-1.3333333,0,32)"
     id="g10"><g
       transform="translate(2.811279,3.243454)"
       id="g12"><path
         id="path14"
         style="fill:#212121;fill-opacity:1;fill-rule:nonzero;stroke:none"
         d="m 14.210838,0.006546 c -0.1211,1.91e-4 -0.240209,0.031139 -0.346379,0.09 L 9.064641,2.646544 4.264823,0.096546 C 4.142856,0.03038 4.005007,0 3.866851,0.008835 3.728694,0.01767 3.595736,0.065371 3.482998,0.146545 3.370439,0.229916 3.283055,0.343285 3.230621,0.473972 3.178188,0.60466 3.162773,0.747511 3.186101,0.886545 l 0.930274,5.4 -3.899233,3.82 c -0.097724,0.09884 -0.166182,0.223302 -0.197657,0.359351 -0.031474,0.136048 -0.024713,0.278275 0.01952,0.410649 0.041433,0.132866 0.119141,0.251215 0.224185,0.341436 0.105044,0.09022 0.233158,0.14865 0.369607,0.168564 l 5.363919,0.79 2.404857,4.910001 c 0.068446,0.116026 0.165538,0.212105 0.28177,0.278826 0.116232,0.06672 0.24762,0.101799 0.381298,0.101799 0.133678,0 0.265066,-0.03508 0.381298,-0.101799 0.116232,-0.06672 0.213324,-0.1628 0.28177,-0.278826 l 2.404857,-4.910001 5.363921,-0.79 c 0.136448,-0.01991 0.26456,-0.07834 0.369606,-0.168564 0.105043,-0.09022 0.182752,-0.20857 0.224186,-0.341436 0.04423,-0.132374 0.05099,-0.274601 0.01952,-0.410649 -0.03148,-0.136049 -0.09993,-0.260509 -0.197657,-0.359351 l -3.899234,-3.82 0.920378,-5.4 C 14.956613,0.747511 14.941196,0.60466 14.888763,0.473972 14.836329,0.343285 14.748946,0.229916 14.636387,0.146545 14.511068,0.058975 14.363158,0.010315 14.210838,0.006546 Z M 9.064641,4.236545 c 0.11978,-0.00144 0.237873,-0.028717 0.346379,-0.08 l 3.810165,-2 -0.722448,4.29 c -0.0196,0.12032 -0.01101,0.243608 0.02509,0.359966 0.03609,0.116358 0.09868,0.222544 0.182742,0.310034 l 3.087716,3 -4.265404,0.64 c -0.117959,0.01897 -0.229751,0.06605 -0.326125,0.137343 -0.09637,0.0713 -0.174558,0.164761 -0.228081,0.272657 l -1.91003,3.9 -1.910031,-3.91 C 7.101088,11.048649 7.022904,10.955185 6.92653,10.883887 6.830156,10.81259 6.718364,10.765511 6.600405,10.746545 l -4.265405,-0.63 3.087717,-3 C 5.506777,7.029055 5.569366,6.922869 5.605459,6.806511 5.641552,6.690153 5.650144,6.566865 5.630544,6.446545 l -0.722446,-4.319999 3.810164,2 C 8.82442,4.188253 8.942634,4.225793 9.064641,4.236545 Z" /></g></g></svg>

<svg xmlns="http://www.w3.org/2000/svg" xmlns:xlink="http://www.w3.org/1999/xlink" version="1.1" width="18.129273pt" height="17.460625pt" viewBox="0 0 18.129273 17.460625">
<path transform="matrix(1,0,0,-1,0,17.46717)" d="M14.210838 .006546C14.089738 .006737 13.970629 .037685 13.864459 .096546L9.064641 2.646544 4.264823 .096546C4.142856 .03038 4.005007 0 3.866851 .008835 3.728694 .01767 3.595736 .065371 3.482998 .146545 3.370439 .229916 3.283055 .343285 3.230621 .473972 3.178188 .60466 3.162773 .747511 3.186101 .886545L4.116375 6.286545 .217142 10.106545C.119418 10.205387 .05096 10.329847 .019485 10.465896-.011989 10.601944-.005228 10.744171 .039005 10.876545 .080438 11.009411 .158146 11.12776 .26319 11.217981 .368234 11.308203 .496348 11.366631 .632797 11.386545L5.996716 12.176545 8.401573 17.086546C8.470019 17.202572 8.567111 17.29865 8.683343 17.365372 8.799575 17.432093 8.930963 17.46717 9.064641 17.46717 9.198319 17.46717 9.329707 17.432093 9.445939 17.365372 9.562171 17.29865 9.659263 17.202572 9.727709 17.086546L12.132566 12.176545 17.496487 11.386545C17.632935 11.366631 17.761048 11.308203 17.866093 11.217981 17.971137 11.12776 18.048846 11.009411 18.090279 10.876545 18.134512 10.744171 18.14127 10.601944 18.109797 10.465896 18.078322 10.329847 18.009865 10.205387 17.91214 10.106545L14.012906 6.286545 14.933284 .886545C14.956613 .747511 14.941196 .60466 14.888763 .473972 14.836329 .343285 14.748946 .229916 14.636387 .146545 14.511068 .058975 14.363158 .010315 14.210838 .006546ZM9.064641 4.236545C9.184421 4.235103 9.302514 4.207828 9.41102 4.156545L13.221185 2.156545 12.498737 6.446545C12.479138 6.566865 12.48773 6.690153 12.523823 6.806511 12.559916 6.922869 12.622505 7.029055 12.706565 7.116545L15.794281 10.116545 11.528877 10.756545C11.410918 10.775511 11.299126 10.82259 11.202752 10.893888 11.106379 10.965185 11.028194 11.058649 10.974671 11.166545L9.064641 15.066545 7.15461 11.156545C7.101088 11.048649 7.022904 10.955185 6.92653 10.883887 6.830156 10.81259 6.718364 10.765511 6.600405 10.746545L2.335 10.116545 5.422717 7.116545C5.506777 7.029055 5.569366 6.922869 5.605459 6.806511 5.641552 6.690153 5.650144 6.566865 5.630544 6.446545L4.908098 2.126546 8.718262 4.126546C8.82442 4.188253 8.942634 4.225793 9.064641 4.236545Z" fill="#212121"/>
</svg>
